source/images/icons/dribbble.svg

<svg height="40" viewBox="0 0 40 40" width="40" xmlns="http://www.w3.org/2000/svg"><path d="m29.0245895 33.3850564c-.1660348-.9845574-1.028648-5.7215818-3.1479094-11.5379651 5.0777004-.8116376 9.5389269.5170383 10.0933032.6918118-.7222648 4.502669-3.3101046 8.3912474-6.9453938 10.8461533m-9.0536655 2.7675122c-3.7459791 0-7.1988153-1.2763763-9.9463345-3.4160278.2916865-.5954216 3.5725297-6.9250035 12.7122579-10.1056168.0356167-.0123135.0712334-.0239651.1068502-.0360139 2.2749686 5.90377 3.2157003 10.8519791 3.4568083 12.2716167-1.945547.8275262-4.0849338 1.2860418-6.3295819 1.2860418m-16.20415327-16.1823066c0-.1655052.00331011-.330216.00834147-.4945296.70889198.0145645 8.5612544.1155889 16.6534007-2.3030383.4639442.9067038.9069686 1.8270453 1.3138467 2.7463275-.2143624.0602439-.4275331.1243275-.6385854.1925157-8.3570871 2.6977352-12.80427873 10.0511986-13.17130312 10.678662-2.58797213-2.8689338-4.16570035-6.66377-4.16570035-10.8199373m9.31503137-14.64496165c.4271359.58509408 3.3228153 4.59243902 6.0077073 9.35885715-7.5797422 2.0101603-14.25569337 1.9812962-14.98034146 1.9716307 1.05062718-5.0214286 4.43924739-9.19507322 8.97263416-11.33048785m6.8891219-1.53747735c4.1172405 0 7.8800349 1.5422439 10.741554 4.07765156-.2914216.4145575-2.7307038 3.68878054-8.4928013 5.84551224-2.6551011-4.87194429-5.5981812-8.87439028-6.0461046-9.4733868 1.2186481-.29327526 2.4898607-.449777 3.7973519-.449777m12.5430453 5.94905226c2.2566969 2.75360974 3.6233729 6.26099654 3.6589896 10.08045994-.5342509-.1128084-5.8914565-1.197993-11.2832195-.5208781-.1136028-.2771219-.2298537-.5554355-.3490174-.8352055-.3364391-.789129-.6980349-1.5730941-1.0749896-2.3439513 5.9911568-2.4427247 8.7065017-5.9189965 9.0482369-6.38042504m-12.5430453-8.7369547c-10.46059229 0-18.97087104 8.49902439-18.97087104 18.94558184 0 10.4466899 8.51027875 18.9455819 18.97087104 18.9455819 10.46046 0 18.9707387-8.498892 18.9707387-18.9455819 0-10.44655745-8.5102787-18.94558184-18.9707387-18.94558184" fill="#fff" fill-rule="evenodd"/></svg>

<svg width="40px" height="40px" viewBox="0 0 40 40" version="1.1" xmlns="http://www.w3.org/2000/svg" xmlns:xlink="http://www.w3.org/1999/xlink">
  <g id="dribbble" stroke="none" stroke-width="1" fill="none" fill-rule="evenodd">
    <path d="M29.0245895,33.3850564 C28.8585547,32.400499 27.9959415,27.6634746 25.8766801,21.8470913 C30.9543805,21.0354537 35.415607,22.3641296 35.9699833,22.5389031 C35.2477185,27.0415721 32.6598787,30.9301505 29.0245895,33.3850564 M19.970924,36.1525686 C16.2249449,36.1525686 12.7721087,34.8761923 10.0245895,32.7365408 C10.316276,32.1411192 13.5971192,25.8115373 22.7368474,22.630924 C22.7724641,22.6186105 22.8080808,22.6069589 22.8436976,22.5949101 C25.1186662,28.4986801 26.0593979,33.4468892 26.3005059,34.8665268 C24.3549589,35.694053 22.2155721,36.1525686 19.970924,36.1525686 M3.76677073,19.970262 C3.76677073,19.8047568 3.77008084,19.640046 3.7751122,19.4757324 C4.48400418,19.4902969 12.3363666,19.5913213 20.4285129,17.1726941 C20.8924571,18.0793979 21.3354815,18.9997394 21.7423596,19.9190216 C21.5279972,19.9792655 21.3148265,20.0433491 21.1037742,20.1115373 C12.7466871,22.8092725 8.29949547,30.1627359 7.93247108,30.7901993 C5.34449895,27.9212655 3.76677073,24.1264293 3.76677073,19.970262 M13.0818021,5.32530035 C13.508938,5.91039443 16.4046174,9.91773937 19.0895094,14.6841575 C11.5097672,16.6943178 4.83381603,16.6654537 4.10916794,16.6557882 C5.15979512,11.6343596 8.54841533,7.46071498 13.0818021,5.32530035 M19.970924,3.787823 C24.0881645,3.787823 27.8509589,5.3300669 30.712478,7.86547456 C30.4210564,8.28003206 27.9817742,11.5542551 22.2196767,13.7109868 C19.5645756,8.83904251 16.6214955,4.83659652 16.1735721,4.2376 C17.3922202,3.94432474 18.6634328,3.787823 19.970924,3.787823 M32.5139693,9.73687526 C34.7706662,12.490485 36.1373422,15.9978718 36.1729589,19.8173352 C35.638708,19.7045268 30.2815024,18.6193422 24.8897394,19.2964571 C24.7761366,19.0193352 24.6598857,18.7410216 24.540722,18.4612516 C24.2042829,17.6721226 23.8426871,16.8881575 23.4657324,16.1173003 C29.4568892,13.6745756 32.1722341,10.1983038 32.5139693,9.73687526 M19.970924,0.999920557 C9.51033171,0.999920557 1.00005296,9.49894495 1.00005296,19.9455024 C1.00005296,30.3921923 9.51033171,38.8910843 19.970924,38.8910843 C30.431384,38.8910843 38.9416627,30.3921923 38.9416627,19.9455024 C38.9416627,9.49894495 30.431384,0.999920557 19.970924,0.999920557" fill="#FFFFFF"></path>
  </g>
</svg>
